images/item-team-img2.svg

<svg width="40" height="40" viewBox="0 0 40 40" fill="none" xmlns="http://www.w3.org/2000/svg">
<g id="winning 1" clip-path="url(#clip0_0_168)">
<g id="Group">
<g id="Group_2">
<path id="Vector" d="M24.1408 33.3597C23.7094 33.3597 23.3595 33.7095 23.3595 34.1409V38.4378H20.041C20.0341 38.4378 20.0274 38.4387 20.0205 38.4388C20.0137 38.4387 20.007 38.4378 20.0002 38.4378H16.6816V26.416C16.6816 25.9846 16.3318 25.6348 15.9004 25.6348C15.469 25.6348 15.1191 25.9846 15.1191 26.416V39.2191C15.1191 39.6505 15.469 40.0003 15.9004 40.0003H20.0002C20.007 40.0003 20.0138 39.9995 20.0206 39.9993C20.0275 39.9995 20.0341 40.0003 20.0411 40.0003H24.1408C24.5722 40.0003 24.922 39.6505 24.922 39.2191V34.1409C24.922 33.7095 24.5722 33.3597 24.1408 33.3597Z" fill="#1E8E31"/>
</g>
</g>
<g id="Group_3">
<g id="Group_4">
<path id="Vector_2" d="M24.6929 30.723C24.5477 30.5777 24.3461 30.4941 24.1406 30.4941C23.9352 30.4941 23.7336 30.5777 23.5883 30.723C23.443 30.8684 23.3594 31.0699 23.3594 31.2754C23.3594 31.4809 23.4429 31.6824 23.5883 31.8277C23.7336 31.9737 23.9352 32.0566 24.1406 32.0566C24.3461 32.0566 24.5477 31.9737 24.6929 31.8277C24.8382 31.6824 24.9219 31.4809 24.9219 31.2754C24.9219 31.0699 24.8383 30.8684 24.6929 30.723Z" fill="#1E8E31"/>
</g>
</g>
<g id="Group_5">
<g id="Group_6">
<path id="Vector_3" d="M24.1406 25.6348C23.7092 25.6348 23.3594 25.9846 23.3594 26.416V28.2555C23.3594 28.687 23.7092 29.0368 24.1406 29.0368C24.572 29.0368 24.9219 28.687 24.9219 28.2555V26.416C24.9219 25.9846 24.572 25.6348 24.1406 25.6348Z" fill="#1E8E31"/>
</g>
</g>
<g id="Group_7">
<g id="Group_8">
<path id="Vector_4" d="M27.2572 11.2663C26.3651 10.3657 24.9059 10.3322 24.0052 11.192C23.5525 11.6239 23.2992 12.206 23.2919 12.831C23.2845 13.4561 23.524 14.0438 23.9659 14.4859C25.0724 15.5923 25.6818 17.0634 25.6818 18.6282L25.6816 18.6753C25.67 20.1739 24.7958 21.4752 23.5316 22.1166C23.9093 21.4938 24.127 20.7636 24.127 19.9835V19.3752C24.127 17.0998 22.2758 15.2485 20.0003 15.2485C17.7248 15.2485 15.8736 17.0998 15.8736 19.3752V19.9835C15.8736 20.7637 16.0913 21.4938 16.469 22.1167C15.2048 21.4755 14.3305 20.1748 14.3189 18.678L14.3187 18.6283C14.3187 17.0634 14.9281 15.5923 16.0346 14.4859C16.4766 14.0438 16.716 13.4562 16.7087 12.831C16.7013 12.206 16.448 11.624 15.9954 11.192C15.0945 10.3322 13.6356 10.3656 12.7434 11.2663C10.7904 13.2379 9.71484 15.8524 9.71484 18.6282C9.71484 21.4228 10.8031 24.05 12.7792 26.026C13.0844 26.331 13.5789 26.331 13.8841 26.026C14.1892 25.7209 14.1892 25.2263 13.8841 24.9211C12.2031 23.2402 11.2774 21.0053 11.2774 18.6281C11.2774 16.2669 12.1923 14.0429 13.8535 12.3659C14.1507 12.0659 14.6275 12.0464 14.9168 12.3223C15.0624 12.4613 15.1439 12.6484 15.1463 12.8492C15.1487 13.0502 15.0718 13.239 14.9298 13.3809C13.5283 14.7825 12.7564 16.646 12.7564 18.6282L12.7566 18.6875C12.7799 21.6743 15.242 24.1043 18.2451 24.1043H19.7819C19.8543 24.1081 19.9271 24.1102 20.0004 24.1102C20.0737 24.1102 20.1466 24.1081 20.2189 24.1043H21.7557C24.7587 24.1043 27.2209 21.6743 27.2442 18.6846L27.2444 18.6282C27.2444 16.646 26.4725 14.7825 25.0709 13.3809C24.929 13.239 24.852 13.0502 24.8545 12.8492C24.8568 12.6485 24.9383 12.4614 25.084 12.3223C25.3732 12.0465 25.8503 12.0659 26.1473 12.3659C27.8085 14.0429 28.7234 16.2669 28.7234 18.6281C28.7234 21.0053 27.7976 23.2402 26.1166 24.9211C25.8116 25.2262 25.8116 25.7209 26.1166 26.026C26.2692 26.1785 26.4691 26.2548 26.6691 26.2548C26.869 26.2548 27.0689 26.1785 27.2215 26.026C29.1976 24.05 30.2859 21.4227 30.2859 18.6282C30.2856 15.8524 29.2102 13.2379 27.2572 11.2663ZM22.5645 19.9835C22.5645 21.342 21.5024 22.4565 20.1652 22.5419H19.8352C18.498 22.4565 17.4359 21.342 17.4359 19.9835V19.3752C17.4359 17.9613 18.5863 16.811 20.0002 16.811C21.4141 16.811 22.5645 17.9613 22.5645 19.3752V19.9835Z" fill="#1E8E31"/>
</g>
</g>
<g id="Group_9">
<g id="Group_10">
<path id="Vector_5" d="M8.64187 30.6587C9.38039 29.9734 9.84375 28.9954 9.84375 27.9109V27.3711C9.84375 25.3033 8.16156 23.6211 6.09375 23.6211C4.02594 23.6211 2.34375 25.3033 2.34375 27.3711V27.9109C2.34375 28.9955 2.80711 29.9734 3.54562 30.6587C1.45492 31.6254 0 33.7414 0 36.192V39.22C0 39.6514 0.349844 40.0012 0.78125 40.0012H11.4062C11.8377 40.0012 12.1875 39.6514 12.1875 39.22V36.192C12.1875 33.7414 10.7326 31.6254 8.64187 30.6587ZM3.90625 27.371C3.90625 26.1648 4.88758 25.1835 6.09375 25.1835C7.29992 25.1835 8.28125 26.1648 8.28125 27.371V27.9108C8.28125 29.117 7.29992 30.0983 6.09375 30.0983C4.88758 30.0983 3.90625 29.117 3.90625 27.9108V27.371ZM10.625 38.4387H1.5625V36.192C1.5625 33.6935 3.59523 31.6608 6.09375 31.6608C8.59227 31.6608 10.625 33.6935 10.625 36.192V38.4387Z" fill="#1E8E31"/>
</g>
</g>
<g id="Group_11">
<g id="Group_12">
<path id="Vector_6" d="M36.4544 30.6587C37.1929 29.9734 37.6562 28.9954 37.6562 27.9109V27.3711C37.6562 25.3033 35.9741 23.6211 33.9062 23.6211C31.8384 23.6211 30.1562 25.3033 30.1562 27.3711V27.9109C30.1562 28.9955 30.6196 29.9734 31.3581 30.6587C29.2674 31.6254 27.8125 33.7414 27.8125 36.192V39.22C27.8125 39.6514 28.1623 40.0012 28.5938 40.0012H39.2188C39.6502 40.0012 40 39.6514 40 39.22V36.192C40 33.7414 38.5451 31.6254 36.4544 30.6587ZM31.7188 27.371C31.7188 26.1648 32.7001 25.1835 33.9062 25.1835C35.1124 25.1835 36.0938 26.1648 36.0938 27.371V27.9108C36.0938 29.117 35.1124 30.0983 33.9062 30.0983C32.7001 30.0983 31.7188 29.117 31.7188 27.9108V27.371ZM38.4375 38.4387H29.375V36.192C29.375 33.6935 31.4077 31.6608 33.9062 31.6608C36.4048 31.6608 38.4375 33.6935 38.4375 36.192V38.4387Z" fill="#1E8E31"/>
</g>
</g>
<g id="Group_13">
<g id="Group_14">
<path id="Vector_7" d="M26.2095 0H23.5821H16.4165H13.7891C13.3577 0 13.0078 0.349766 13.0078 0.78125V2.93094C13.0078 4.5907 14.2005 5.97641 15.7736 6.27797C16.1964 7.91164 17.5459 9.17531 19.2249 9.47516V10.9895H17.9979C17.5665 10.9895 17.2166 11.3393 17.2166 11.7708C17.2166 12.2023 17.5665 12.552 17.9979 12.552H22.0145C22.4459 12.552 22.7958 12.2023 22.7958 11.7708C22.7958 11.3393 22.4459 10.9895 22.0145 10.9895H20.7874V9.47266C22.4601 9.16836 23.8033 7.90719 24.2249 6.27797C25.798 5.97641 26.9908 4.5907 26.9908 2.93094V0.78125C26.9908 0.349766 26.6409 0 26.2095 0ZM15.6352 4.60352C15.0066 4.30875 14.5703 3.66984 14.5703 2.93094V1.5625H15.6352V4.60352ZM22.8009 5.1868H22.8009C22.8009 6.72797 21.547 7.9818 20.0059 7.9818H19.9927C18.4515 7.9818 17.1977 6.72797 17.1977 5.1868V1.5625H22.8009V5.1868ZM25.4283 2.93094C25.4283 3.66984 24.992 4.30875 24.3634 4.60352V1.5625H25.4283V2.93094Z" fill="#1E8E31"/>
</g>
</g>
<g id="Group_15">
<g id="Group_16">
<path id="Vector_8" d="M36.4062 9.21875C35.9748 9.21875 35.625 9.56852 35.625 10V10.9711C35.625 11.4026 35.9748 11.7523 36.4062 11.7523C36.8377 11.7523 37.1875 11.4026 37.1875 10.9711V10C37.1875 9.56852 36.8377 9.21875 36.4062 9.21875Z" fill="#1E8E31"/>
</g>
</g>
<g id="Group_17">
<g id="Group_18">
<path id="Vector_9" d="M36.4062 13.873C35.9748 13.873 35.625 14.2228 35.625 14.6543V15.6254C35.625 16.0569 35.9748 16.4066 36.4062 16.4066C36.8377 16.4066 37.1875 16.0569 37.1875 15.6254V14.6543C37.1875 14.2228 36.8377 13.873 36.4062 13.873Z" fill="#1E8E31"/>
</g>
</g>
<g id="Group_19">
<g id="Group_20">
<path id="Vector_10" d="M39.2191 12.0312H38.248C37.8166 12.0312 37.4668 12.381 37.4668 12.8125C37.4668 13.244 37.8166 13.5938 38.248 13.5938H39.2191C39.6505 13.5938 40.0004 13.244 40.0004 12.8125C40.0004 12.381 39.6505 12.0312 39.2191 12.0312Z" fill="#1E8E31"/>
</g>
</g>
<g id="Group_21">
<g id="Group_22">
<path id="Vector_11" d="M34.5648 12.0312H33.5938C33.1623 12.0312 32.8125 12.381 32.8125 12.8125C32.8125 13.244 33.1623 13.5938 33.5938 13.5938H34.5648C34.9962 13.5938 35.3461 13.244 35.3461 12.8125C35.3461 12.381 34.9962 12.0312 34.5648 12.0312Z" fill="#1E8E31"/>
</g>
</g>
<g id="Group_23">
<g id="Group_24">
<path id="Vector_12" d="M3.59375 1.40625C3.16234 1.40625 2.8125 1.75602 2.8125 2.1875V3.15859C2.8125 3.59008 3.16234 3.93984 3.59375 3.93984C4.02516 3.93984 4.375 3.59008 4.375 3.15859V2.1875C4.375 1.75602 4.02516 1.40625 3.59375 1.40625Z" fill="#1E8E31"/>
</g>
</g>
<g id="Group_25">
<g id="Group_26">
<path id="Vector_13" d="M3.59375 6.06055C3.16234 6.06055 2.8125 6.41031 2.8125 6.8418V7.81289C2.8125 8.24437 3.16234 8.59414 3.59375 8.59414C4.02516 8.59414 4.375 8.24437 4.375 7.81289V6.8418C4.375 6.41031 4.02516 6.06055 3.59375 6.06055Z" fill="#1E8E31"/>
</g>
</g>
<g id="Group_27">
<g id="Group_28">
<path id="Vector_14" d="M6.40664 4.21875H5.43555C5.00414 4.21875 4.6543 4.56852 4.6543 5C4.6543 5.43148 5.00414 5.78125 5.43555 5.78125H6.40664C6.83805 5.78125 7.18789 5.43148 7.18789 5C7.18789 4.56852 6.83805 4.21875 6.40664 4.21875Z" fill="#1E8E31"/>
</g>
</g>
<g id="Group_29">
<g id="Group_30">
<path id="Vector_15" d="M1.75234 4.21875H0.78125C0.349844 4.21875 0 4.56852 0 5C0 5.43148 0.349844 5.78125 0.78125 5.78125H1.75234C2.18375 5.78125 2.53359 5.43148 2.53359 5C2.53359 4.56852 2.18375 4.21875 1.75234 4.21875Z" fill="#1E8E31"/>
</g>
</g>
</g>
<defs>
<clipPath id="clip0_0_168">
<rect width="40" height="40" fill="white"/>
</clipPath>
</defs>
</svg>

<svg xmlns="http://www.w3.org/2000/svg" width="40" height="40" fill="none"><g clip-path="url(#a)"><path fill="#1E8E31" d="M24.14 33.36a.781.781 0 0 0-.78.78v4.298H16.68V26.416a.781.781 0 0 0-1.562 0v12.803c0 .431.35.781.781.781h8.241c.431 0 .781-.35.781-.78v-5.08a.781.781 0 0 0-.781-.78ZM24.693 30.723a.787.787 0 0 0-.552-.229.787.787 0 0 0-.553.229.787.787 0 0 0-.229.552.784.784 0 0 0 1.334.552.787.787 0 0 0 .229-.552.787.787 0 0 0-.23-.552ZM24.14 25.635a.781.781 0 0 0-.78.781v1.84a.781.781 0 1 0 1.562 0v-1.84a.781.781 0 0 0-.781-.781Z"/><path fill="#1E8E31" d="M27.257 11.266c-.892-.9-2.351-.934-3.252-.074a2.285 2.285 0 0 0-.713 1.639 2.285 2.285 0 0 0 .674 1.655 5.82 5.82 0 0 1 1.716 4.142v.047a3.903 3.903 0 0 1-2.15 3.442 4.101 4.101 0 0 0 .595-2.134v-.608A4.131 4.131 0 0 0 20 15.248a4.131 4.131 0 0 0-4.126 4.127v.608c0 .78.217 1.51.595 2.134-1.264-.642-2.139-1.942-2.15-3.439v-.05a5.82 5.82 0 0 1 1.716-4.142c.442-.442.681-1.03.674-1.655a2.286 2.286 0 0 0-.714-1.639c-.9-.86-2.36-.826-3.252.074a10.397 10.397 0 0 0-3.028 7.362c0 2.795 1.088 5.422 3.064 7.398a.781.781 0 0 0 1.105-1.105 8.841 8.841 0 0 1-2.607-6.293c0-2.361.915-4.585 2.577-6.262.297-.3.774-.32 1.063-.044a.735.735 0 0 1 .23.527.733.733 0 0 1-.217.532 7.372 7.372 0 0 0-2.174 5.247v.06c.024 2.986 2.486 5.416 5.49 5.416h1.536a4.167 4.167 0 0 0 .437 0h1.537c3.003 0 5.465-2.43 5.488-5.42v-.056a7.372 7.372 0 0 0-2.173-5.247.733.733 0 0 1-.216-.532.735.735 0 0 1 .229-.527c.29-.275.766-.256 1.063.044a8.844 8.844 0 0 1 2.576 6.262 8.841 8.841 0 0 1-2.606 6.293.781.781 0 0 0 1.104 1.105 10.393 10.393 0 0 0 3.065-7.398c0-2.776-1.076-5.39-3.029-7.362Zm-4.693 8.717a2.567 2.567 0 0 1-2.399 2.559h-.33a2.567 2.567 0 0 1-2.4-2.559v-.608A2.567 2.567 0 0 1 20 16.811a2.567 2.567 0 0 1 2.564 2.564v.608ZM8.642 30.659a3.74 3.74 0 0 0 1.202-2.748v-.54a3.754 3.754 0 0 0-3.75-3.75 3.754 3.754 0 0 0-3.75 3.75v.54a3.74 3.74 0 0 0 1.202 2.748A6.1 6.1 0 0 0 0 36.192v3.028c0 .431.35.781.781.781h10.625c.432 0 .781-.35.781-.781v-3.028a6.1 6.1 0 0 0-3.545-5.533ZM3.906 27.37a2.19 2.19 0 0 1 2.188-2.188 2.19 2.19 0 0 1 2.187 2.188v.54a2.19 2.19 0 0 1-2.187 2.187 2.19 2.19 0 0 1-2.188-2.187v-.54Zm6.719 11.068H1.562v-2.247a4.536 4.536 0 0 1 4.532-4.531 4.536 4.536 0 0 1 4.531 4.531v2.247ZM36.454 30.659a3.74 3.74 0 0 0 1.202-2.748v-.54a3.754 3.754 0 0 0-3.75-3.75 3.754 3.754 0 0 0-3.75 3.75v.54a3.74 3.74 0 0 0 1.202 2.748 6.1 6.1 0 0 0-3.546 5.533v3.028c0 .431.35.781.782.781h10.625c.431 0 .781-.35.781-.781v-3.028a6.1 6.1 0 0 0-3.546-5.533ZM31.72 27.37a2.19 2.19 0 0 1 2.187-2.188 2.19 2.19 0 0 1 2.188 2.188v.54a2.19 2.19 0 0 1-2.188 2.187 2.19 2.19 0 0 1-2.187-2.187v-.54Zm6.718 11.068h-9.062v-2.247a4.536 4.536 0 0 1 4.531-4.531 4.536 4.536 0 0 1 4.532 4.531v2.247Z"/><path fill="#1E8E31" d="M26.21 0H13.788a.781.781 0 0 0-.781.781v2.15a3.414 3.414 0 0 0 2.766 3.347 4.37 4.37 0 0 0 3.45 3.197v1.514h-1.226a.781.781 0 0 0 0 1.563h4.017a.781.781 0 1 0 0-1.563h-1.228V9.473a4.37 4.37 0 0 0 3.438-3.195 3.414 3.414 0 0 0 2.766-3.347V.78A.781.781 0 0 0 26.209 0ZM15.634 4.604A1.849 1.849 0 0 1 14.57 2.93V1.562h1.065v3.042Zm7.166.583a2.798 2.798 0 0 1-2.795 2.795h-.013a2.798 2.798 0 0 1-2.795-2.795V1.562H22.8v3.625Zm2.627-2.256c0 .739-.436 1.378-1.065 1.673V1.562h1.065v1.369ZM36.406 9.219a.781.781 0 0 0-.781.781v.971a.781.781 0 1 0 1.563 0V10a.781.781 0 0 0-.782-.781ZM36.406 13.873a.781.781 0 0 0-.781.781v.971a.781.781 0 1 0 1.563 0v-.97a.781.781 0 0 0-.782-.782ZM39.22 12.031h-.972a.781.781 0 0 0 0 1.563h.971a.781.781 0 0 0 0-1.563ZM34.565 12.031h-.971a.781.781 0 0 0 0 1.563h.97a.781.781 0 0 0 0-1.563ZM3.594 1.406a.781.781 0 0 0-.781.782v.97a.781.781 0 0 0 1.562 0v-.97a.781.781 0 0 0-.781-.782ZM3.594 6.06a.781.781 0 0 0-.781.782v.97a.781.781 0 0 0 1.562 0v-.97a.781.781 0 0 0-.781-.781ZM6.407 4.219h-.971a.781.781 0 0 0 0 1.562h.97a.781.781 0 0 0 0-1.562ZM1.752 4.219h-.97a.781.781 0 0 0 0 1.562h.97a.781.781 0 0 0 0-1.562Z"/></g><defs><clipPath id="a"><path fill="#fff" d="M0 0h40v40H0z"/></clipPath></defs></svg>
